X: 37588
T: Smiling Bride, The
R: jig
M: 6/8
K: Dmajor
|:|~E3 FDD|FEE cde|dcA GEA,|CDE GA|
[1 G|~E3 FDD|FEE cde|dcA GEC|EDC D3:|
[2 B|cAG EFG|FdF GFG|AdB cAG|EDC D2||
|:e|~f2g fdA|dfa agf|~g2f ecA|cde gag|
[1 ~f2g fdA|dfa agf|Bef gab|aec d2:|
[2 fga bag|fge dAF|GAB ABc|dgf ecA||

